project/img/advantares-icon/icon-2.svg

<svg width="41" height="41" viewBox="0 0 41 41" fill="none" xmlns="http://www.w3.org/2000/svg">
<path d="M20.5 41C31.8218 41 41 31.8218 41 20.5C41 9.17816 31.8218 0 20.5 0C9.17816 0 0 9.17816 0 20.5C0 31.8218 9.17816 41 20.5 41Z" fill="#84DBFF"/>
<path d="M26.3293 27.4985H7.71289V30.3563H26.3293V27.4985Z" fill="#FF7058"/>
<path d="M20.9547 13.591C20.9547 11.1634 18.9412 9.21491 16.4974 9.30422C14.281 9.38541 12.4543 11.2284 12.3812 13.4367C12.365 13.9725 12.4461 14.484 12.6004 14.9549C13.6802 18.1456 14.4028 21.4418 14.4028 24.8111V25.8098H18.925V25.3713C18.925 21.8884 19.3877 18.3892 20.6624 15.1416C20.8491 14.6626 20.9547 14.143 20.9547 13.591Z" fill="#324A5E"/>
<path d="M25.2171 25.5662H8.8252V27.4984H25.2171V25.5662Z" fill="#324A5E"/>
<path d="M34.5294 15.0036C34.1478 14.5489 33.9124 13.9806 33.8637 13.3879C33.8231 12.9333 33.6363 12.4949 33.2872 12.1457C32.9381 11.7966 32.4997 11.6099 32.045 11.5693C31.4524 11.5206 30.8841 11.2852 30.4294 10.8955C30.0803 10.6032 29.6338 10.4246 29.1466 10.4246C28.6595 10.4246 28.213 10.6032 27.8639 10.8955C27.4092 11.277 26.8409 11.5125 26.2482 11.5612C25.7936 11.6018 25.3551 11.7885 25.006 12.1376C24.6569 12.4867 24.4702 12.9252 24.4296 13.3798C24.3809 13.9725 24.1454 14.5408 23.7639 14.9955C23.4716 15.3446 23.293 15.7911 23.293 16.2782C23.293 16.7654 23.4716 17.2119 23.7639 17.561C24.1454 18.0156 24.3809 18.584 24.4296 19.1766C24.4702 19.6313 24.6569 20.0697 25.006 20.4188C25.3551 20.7679 25.7936 20.9547 26.2482 20.9953C26.8409 21.044 27.4092 21.2794 27.8639 21.661C28.213 21.9533 28.6595 22.1319 29.1466 22.1319C29.6338 22.1319 30.0803 21.9533 30.4294 21.661C30.8841 21.2794 31.4524 21.044 32.045 20.9953C32.4997 20.9547 32.9381 20.7679 33.2872 20.4188C33.6363 20.0697 33.8231 19.6313 33.8637 19.1766C33.9124 18.584 34.1478 18.0156 34.5294 17.561C34.8217 17.2119 35.0003 16.7654 35.0003 16.2782C35.0003 15.7992 34.8217 15.3527 34.5294 15.0036Z" fill="#FF7058"/>
<path d="M29.1464 19.9236C31.1507 19.9236 32.7756 18.2988 32.7756 16.2945C32.7756 14.2902 31.1507 12.6654 29.1464 12.6654C27.1421 12.6654 25.5173 14.2902 25.5173 16.2945C25.5173 18.2988 27.1421 19.9236 29.1464 19.9236Z" fill="#F1543F"/>
</svg>

<svg width="41" height="41" fill="none" xmlns="http://www.w3.org/2000/svg"><path d="M20.5 41C31.822 41 41 31.822 41 20.5S31.822 0 20.5 0 0 9.178 0 20.5 9.178 41 20.5 41z" fill="#84DBFF"/><path d="M26.33 27.498H7.712v2.858h18.616v-2.858z" fill="#FF7058"/><path d="M20.955 13.591a4.292 4.292 0 00-4.458-4.287c-2.216.081-4.043 1.924-4.116 4.133a4.437 4.437 0 00.22 1.518c1.08 3.19 1.802 6.487 1.802 9.856v.999h4.522v-.439c0-3.483.463-6.982 1.737-10.23.187-.478.293-.998.293-1.55z" fill="#324A5E"/><path d="M25.217 25.566H8.825v1.932h16.392v-1.932z" fill="#324A5E"/><path d="M34.53 15.004a2.892 2.892 0 01-.666-1.616 1.988 1.988 0 00-1.819-1.819 2.846 2.846 0 01-1.616-.674 1.993 1.993 0 00-1.282-.47c-.487 0-.934.178-1.283.47a2.893 2.893 0 01-1.616.666 1.988 1.988 0 00-1.818 1.819 2.893 2.893 0 01-.666 1.615c-.292.35-.471.796-.471 1.283a2 2 0 00.47 1.283c.382.455.618 1.023.667 1.616a1.988 1.988 0 001.818 1.818 2.892 2.892 0 011.616.666c.349.292.796.47 1.283.47.487 0 .933-.178 1.282-.47a2.892 2.892 0 011.616-.666 1.988 1.988 0 001.819-1.818 2.892 2.892 0 01.665-1.616c.293-.35.471-.796.471-1.283 0-.479-.178-.925-.47-1.274z" fill="#FF7058"/><path d="M29.146 19.924a3.63 3.63 0 100-7.259 3.63 3.63 0 000 7.259z" fill="#F1543F"/></svg>
